X:1
T:Made Perfectly Whole
T:Made Perfectly Whole
T:Elisha Albright Hoffman
T:Elisha Albright Hoffman, 1891
T:Public Domain Courtesy of the Cyber Hymnal™
T:Public Domain Courtesy of the Cyber Hymnal™
C:Elisha Albright Hoffman
Z:Public Domain
Z:Courtesy of the Cyber Hymnal™
%%score ( 1 2 ) ( 3 4 )
L:1/8
Q:1/4=102
M:4/4
K:G
V:1 treble 
V:2 treble 
V:3 bass 
V:4 bass 
V:1
"^Spirited" [B,D][B,D] | [DG]2 [DG][DG] [DG]2 [DB][DG] | [FA]2 [FA][FA] [FA]2 [GB][Gc] | %3
w: 1.~In the|full- ness of love, Je- sus|came from a- bove, To re-|
w: 2.~Hea- vy|la- den with sin, And de-|file- ment with- in, I bowed|
w: 3.~It was|when I be- lieved That His|peace I re- ceived, And my|
 [Gd]2 [GB][DG] D2 [CE][CF] | [B,G]6 [B,D][B,D] | [DG]2 [DG][DG] [DG]2 [DB][DG] | %6
w: deem me from guilt and from|sin; And He|died on the tree, As a|
w: low at His mer- ci- ful|feet, And He|poured forth the flood Of the|
w: dark- ness was turned in- to|day; For He|scat- tered the night, And my|
 [FA]2 [FA][FA] [FA]2 [GB][Gc] | [Gd]2 [GB][DG] D2 [CE][CF] | [B,G]6 [GB][Gc] | %9
w: ran- som for me, And His|blood makes me per- fect- ly|whole. What a|
w: soul- cleans- ing blood, And my|heal- ing from sin was com-|plete. Now my|
w: soul saw the light, And the|bur- den of sin rolled a-|way. And now|
 [Gd]2 [Gd][Gd] [^GB]2 [GB][GB] | [Ac]2 [Ac][Ac] [FA]2 [FA][FA] | [GB]2 [DB][DB] [EG]2 [^DF][EG] | %12
w: full- ness of peace, What a|rap- ture of bliss, What re-|joic- ing when Christ made me|
w: heart is a tem- ple Of|glad- ness and song, O- ver-|flow- ing with love and with|
w: all the day long His sweet|love is my song, And I|tell of His grace o’er and|
 ([^CA]2 [CB]2 !fermata![DA]2) [B,D][B,D] | [DG]2 [DG][DG] [DG]2 [DG][DB] | %14
w: whole; * * When He|showed forth His pow’r In that|
w: praise! * * Ev- er-|last- ing thanks- giv- ings To|
w: o’er, * * When I|bow at His feet, And His|
 [FA]2 [FA][FA] [FA]2 Bc | d2 BG D2 [CE][CF] | [B,G]6 ||"^Refrain" z2 | z2 [Dd][Dd] [Dd]2 z2 | %19
w: won- der- ful hour, And so|sweet- ly spoke peace to my|soul!||Oh, how sweet|
w: Je- sus be- long, And to|Him glad thanks- giv- ings I|raise.|||
w: prais- es re- peat, And my|won- der- ful Sav- ior a-|dore.|||
 z2 [Dd][Dd] [Dd]2 [Dd][Dd] | [Dd]2 [Dd][Dd] [Dd]2 [Dd][Dd] | !fermata!d6 | [B,D][B,D] | %23
w: was the hour When the|Sav- ior spoke peace to my|soul!|By His|
w: ||||
w: ||||
 [DG]2 [DG][DG] [DG]2 [DG][DB] | [FA]2 [FA][FA] [FA]2 Bc | d2 BG D2 [CE][CF] | [B,G]6 |] %27
w: won- der- ful grace, And His|won- der- ful pow’r, I was|cleansed and made per- fect- ly|whole.|
w: ||||
w: ||||
V:2
 x2 | x8 | x8 | x4 D2 x2 | x8 | x8 | x8 | x4 D2 x2 | x8 | x8 | x8 | x8 | x8 | x8 | x6 Bc | %15
 d2 BG D2 x2 | x6 || x2 | x8 | x8 | x8 | (F2 G2 A2) | x2 | x8 | x6 Bc | d2 BG D2 x2 | x6 |] %27
V:3
 G,G, | [G,B,]2 [G,B,][G,B,] [G,B,]2 G,[G,B,] | [D,D]2 [D,D][D,D] [D,D]2 [G,D][G,A,] | %3
w: Oh, how|* * * * sweet *||
 [G,B,]2 [G,D][G,B,] [A,C]2 [D,A,][D,A,] | [G,,G,]6 G,G, | [G,B,]2 [G,B,][G,B,] [G,B,]2 G,[G,B,] | %6
w: |* was the|* * * * hour *|
 [D,D]2 [D,D][D,D] [D,D]2 [G,D][G,A,] | [G,B,]2 [G,D][G,B,] [A,C]2 [D,A,][D,A,] | %8
w: ||
 [G,,G,]6 G,[G,A,] | [G,B,]2 [G,B,][G,B,] [E,E]2 [E,E][E,E] | [A,E]2 [A,E][A,E] [D,D]2 [D,D][D,D] | %11
w: * When *|||
 [G,D]2 G,G, [E,B,]2 [E,B,][E,B,] | ([A,,A,]2 [A,,G,]2 !fermata![D,F,]2) G,G, | %13
w: * He saved * * *|* * * my soul!|
 [G,B,]2 [G,B,][G,B,] [G,B,]2 G,[G,B,] | [D,D]2 [D,D][D,D] [D,D]2 B,D | D2 B,G, D,2 [D,A,][D,A,] | %16
w: |||
 [G,,G,]6 || [D,F,][E,G,] | [F,A,]6 [E,G,][F,A,] | [G,B,]6 [G,B,][G,B,] | [A,C]4 [G,B,]4 | %21
w: |||||
 (A,2 B,2 !fermata!C2) | G,G, | [G,B,]2 [G,B,][G,B,] [G,B,]2 G,[G,B,] | %24
w: |||
 [D,D]2 [D,D][D,D] [D,D]2 B,D | D2 B,G, D,2 [D,A,][D,A,] | [G,,G,]6 |] %27
w: |||
V:4
 G,G, | x6 G, x | x8 | x8 | x6 G,G, | x6 G, x | x8 | x8 | x6 G, x | x8 | x8 | x2 G,G, x4 | %12
 x6 G,G, | x6 G, x | x6 B,D | D2 B,G, D,2 x2 | x6 || x2 | x8 | x8 | x8 | D,6 | G,G, | x6 G, x | %24
 x6 B,D | D2 B,G, D,2 x2 | x6 |] %27

